X:1
T:Tompkins, 77.77 D
T:Tompkins, 77.77 D
T:George Crawford Hugg, 1896
T:Public Domain Courtesy of the Cyber Hymnal™
C:George Crawford Hugg, 1896
Z:Public Domain
Z:Courtesy of the Cyber Hymnal™
%%score ( 1 2 ) ( 3 4 )
L:1/8
Q:1/4=93
M:6/8
K:Ab
V:1 treble 
V:2 treble 
V:3 bass 
V:4 bass 
V:1
 [Ec]2 [DB] [CA]2 [CE] | [DG]2 [DF] [CE]3 | ([DF][EG])[DF] (Ee)[Ec] | (cB)[_DF] [EB]3 | %4
 [Ec]2 [DB] [CA]2 [CE] | [DG]2 [DF] E3 | ([DF][EG])[DF] (Ee)[Ec] | [Ec]2 [DB] [CA]3 | %8
 [=Ec]2 [Ec] [Ec]2 [EG] | [FB]2 [FA] [FA]3 | [FB]2 [FB] [FB]2 [=DF] | (AG)[_DF] E3 | %12
 [Ec]2 [DB] [CA]2 [CE] | [DG]2 [DF] E3 | ([DF][EG])[DF] (Ee)[Ec] | [Ec]2 [DB] [CA]3 |] %16
V:2
 x6 | x6 | x3 E2 x | =D2 x4 | x6 | x3 E3 | x3 E2 x | x6 | x6 | x6 | x6 | =D2 E3 x | x6 | x3 E3 | %14
 x3 E2 x | x6 |] %16
V:3
 [A,,A,]2 [A,,A,] [A,,A,]2 [A,,A,] | [A,,A,]2 [A,,A,] [A,,A,]3 | [D,A,]2 [D,A,] [C,A,]2 [A,,A,] | %3
 [B,,F,]2 [B,,A,] [E,G,]3 | [A,,A,]2 [A,,A,] [A,,A,]2 [A,,A,] | [B,,G,]2 [B,,G,] [C,A,]3 | %6
 [D,A,]2 [D,A,] [C,A,]2 [E,A,] | (A,G,)[E,G,] [A,,A,]3 | [C,G,]2 [C,G,] [C,G,]2 [C,C] | %9
 [F,C]2 [F,C] [F,C]3 | [B,,=D]2 [B,,D] [B,,D]2 [B,,B,] | [B,,B,]2 [B,,A,] [E,G,]3 | %12
 [A,,A,]2 [A,,A,] [A,,A,]2 [A,,A,] | [B,,G,]2 [B,,G,] [C,A,]3 | [D,A,]2 [D,A,] [C,A,]2 [E,A,] | %15
 (A,G,)E, [A,,E,]3 |] %16
V:4
 x6 | x6 | x6 | x6 | x6 | x6 | x6 | E,2 x4 | x6 | x6 | x6 | x6 | x6 | x6 | x6 | E,2 E, x3 |] %16

